X:14974
T:Schottisch 
S:collection Elisabeth und Christoph Huspeka
A:Niederösterreich 
Z:abc transcription Simon Wascher
N:please mail errors to: simon.wascher@chello.at
M:2/4
L:1/16
K:G
G2F2 G3A|B2c2d4|c3A A2F2|G2B2d4|
G2F2 G3A|B2c2d4|c3A A2F2|G2B2G4:|
|:d4c2A2|d3BG4|A2G2 A2B2|A2F2 G2B2|
d4c2A2|d3BG4|A2G2 AcFA|G2B2G4:|
K:C
|:G6c2|G2E2c4|B2G2d4|c2G2e4|
G6c2|G2E2c4|B3A G2B2|c8:|


